icons/hotel-line.svg

<svg xmlns="http://www.w3.org/2000/svg" width="24" height="24" fill="none"><g clip-path="url(#a)"><g><path fill="#121212" d="M22 21H2V19H3V4C3 3.73478 3.10536 3.48043 3.29289 3.29289C3.48043 3.10536 3.73478 3 4 3H18C18.2652 3 18.5196 3.10536 18.7071 3.29289C18.8946 3.48043 19 3.73478 19 4V9H21V19H22V21ZM17 19H19V11H13V19H15V13H17V19ZM17 9V5H5V19H11V9H17ZM7 11H9V13H7V11ZM7 15H9V17H7V15ZM7 7H9V9H7V7Z"/></g></g><defs><clipPath id="a"><rect width="24" height="24" fill="white"/></clipPath></defs></svg>

<svg width="24" height="24" fill="none" xmlns="http://www.w3.org/2000/svg"><g clip-path="url(#a)"><path d="M22 21H2v-2h1V4a1 1 0 0 1 1-1h14a1 1 0 0 1 1 1v5h2v10h1v2Zm-5-2h2v-8h-6v8h2v-6h2v6Zm0-10V5H5v14h6V9h6ZM7 11h2v2H7v-2Zm0 4h2v2H7v-2Zm0-8h2v2H7V7Z" /></g><defs><clipPath id="a"><path fill="#fff" d="M0 0h24v24H0z"/></clipPath></defs></svg>
